X:1
T:The Golden Shore
T:Edwin Othello Excell
T:The Golden Shore
T:Public Domain
T:Public Domain
C:Edwin Othello Excell
Z:Public Domain
%%score ( 1 2 ) 3
L:1/8
M:4/4
K:Bb
V:1 treble 
V:2 treble 
V:3 bass 
V:1
 [B,D]>[CE] | [DF]4- [DF][B,D] [CE]>[EG] | [EG]/ [DF]3- [DF]2 [DF]>[Fd] x/ | %3
w: 1.~We shall|hear * the an- gels|sing- ing, * When we|
w: 2.~We shall|cast * our crowns be-|fore Him, * When we|
 [Fc]4- [Fc]>[EF] E>[Ec] | [DB]6 [B,D]>[CE] | [DF]4- [DF][B,D] [CE]>[EG] | %6
w: reach * the gold- en|Loud their an-|thems * will be ring-|
w: reach * the gold- en|And with shin-|ing * hosts a- dore|
 [EG]/ [DF]3- [DF]2 [DF]>[Fd] x/ | [Fc]4- [Fc]>[EF] E>[Ec] | [DB]6 [Bd]>[Bd] | %9
w: ing, When * we reach|the * gold- en shore;|sus there will|
w: Him, When * we reach|the * gold- en shore;|ery land and|
 [Bc]4- [Bc]>[Bc] [Fd]>[Fc] | [FB]2 [DF]4 [Fd]>[Fd] | [Fc]4- [Fc]>[CF] [FA]>[CG] | %12
w: rise * to meet us,|With sweet lov- ing|words * He’ll greet us,|
w: ev- * ery na- tion,|All made free thro’|His * sal- va- tion,|
 [CG]2 (z2 E2) [B,D]>[CE] | [DF]4- [DF][B,D] [CE]>[EG] | [EG]/ [DF]3- [DF]2 [DF]>[Fd] | %15
w: And * be- side|* * He will seat|us, When * we reach|
w: Will * join in|* * ac- cla- ma-|tion, When * we reach|
 [Fc]4- [Fc]>[EF] E>[Ec] | [DB]6 |] %17
w: the * gold- en shore.||
w: the * gold- en shore.||
V:2
 x2 | x8 | x8 | x6 E3/2 x/ | x8 | x8 | x8 | x6 E3/2 x/ | x8 | x8 | x8 | x8 | x2 [CF]4 x2 | x8 | %14
w: |||shore;||||Je-|||||Him||
w: |||shore;||||Ev-|||||the||
 x15/2 | x6 E3/2 x/ | x6 |] %17
w: |||
w: |||
V:3
 z2 | z2 (3(B,,3/2D,/F, B,2) z2 | z2 (3(B,,3/2D,/F, B,2) z2 | z [F,A,] [F,A,]>[F,A,] [F,A,]2 z2 | %4
w: |~ * * *|~ * * *|The gold- en shore,|
 z [B,,B,] [B,,B,]>[B,,B,] [B,,F,]2 z2 | z2 (3(B,,3/2D,/F, B,2) z2 | z2 (3(B,,3/2D,/F, B,2) z2 | %7
w: The gold- en shore;|~ * * *|~ * * *|
 z ([F,A,] [F,A,]>[F,A,] [F,A,]2) z2 | z ([B,,B,] [B,,B,]>[B,,B,] [B,,F,]2) [B,F]>[B,F] | %9
w: ~ * * *|~ * * * ~ ~|
 [G,=E]4- [G,E]>[G,E] [F,_E]>[F,E] | [B,D]2 [B,,B,]4 [B,,B,]>[B,,B,] | %11
w: ~ * ~ ~ ~|~ ~ ~ ~|
 [C,A,]4- [C,A,]>[C,A,] [C,C]>[C,B,] | [C,B,]2 [F,A,]4 [B,,B,]>[B,,F,] | %13
w: ~ * ~ ~ ~|~ ~ ~ ~|
 [B,,B,]4- [B,,B,][B,,F,] [B,,F,]>[B,,B,] | [B,,B,]/ [B,,B,]3- [B,,B,]2 z2 | %15
w: ~ * ~ ~ ~|~ ~ *|
 z [F,A,] [F,A,]>[F,A,] [F,A,]2 z2 | z [B,,B,] [B,,B,]>[B,,B,] [B,,F,]2 |] %17
w: The gold- en shore,|The gold- en shore;|

